public/images/icon-faq.svg

<svg width="24" height="24" viewBox="0 0 17 17" xmlns="http://www.w3.org/2000/svg">
<path d="M8.97482 1.33929C5.11171 1.33929 1.97937 4.47163 1.97937 8.33474C1.97937 12.1979 5.11171 15.3302 8.97482 15.3302C12.8379 15.3302 15.9703 12.1979 15.9703 8.33474C15.9703 4.47163 12.8379 1.33929 8.97482 1.33929ZM8.97482 14.1435C5.76753 14.1435 3.1661 11.542 3.1661 8.33474C3.1661 5.12746 5.76753 2.52602 8.97482 2.52602C12.1821 2.52602 14.7835 5.12746 14.7835 8.33474C14.7835 11.542 12.1821 14.1435 8.97482 14.1435Z" fill="#fff"/>
<path d="M10.7174 5.28518C10.249 4.87451 9.63064 4.64966 8.97482 4.64966C8.31899 4.64966 7.70064 4.87607 7.2322 5.28518C6.74502 5.71147 6.47644 6.28453 6.47644 6.8982V7.01687C6.47644 7.08557 6.53265 7.14179 6.60136 7.14179H7.35087C7.41958 7.14179 7.47579 7.08557 7.47579 7.01687V6.8982C7.47579 6.20958 8.14879 5.64901 8.97482 5.64901C9.80084 5.64901 10.4738 6.20958 10.4738 6.8982C10.4738 7.38382 10.1303 7.82884 9.59785 8.0334C9.26681 8.15988 8.98575 8.38161 8.78431 8.67204C8.57976 8.96872 8.47358 9.32474 8.47358 9.68545V10.0212C8.47358 10.0899 8.52979 10.1461 8.5985 10.1461H9.34801C9.41672 10.1461 9.47293 10.0899 9.47293 10.0212V9.66671C9.47374 9.51512 9.5202 9.3673 9.60627 9.24251C9.69234 9.11772 9.81402 9.02177 9.95543 8.96716C10.8767 8.61271 11.4716 7.80073 11.4716 6.8982C11.4732 6.28453 11.2046 5.71147 10.7174 5.28518ZM8.35022 11.77C8.35022 11.9357 8.41603 12.0945 8.53316 12.2117C8.65029 12.3288 8.80916 12.3946 8.97482 12.3946C9.14047 12.3946 9.29934 12.3288 9.41647 12.2117C9.5336 12.0945 9.59941 11.9357 9.59941 11.77C9.59941 11.6044 9.5336 11.4455 9.41647 11.3284C9.29934 11.2112 9.14047 11.1454 8.97482 11.1454C8.80916 11.1454 8.65029 11.2112 8.53316 11.3284C8.41603 11.4455 8.35022 11.6044 8.35022 11.77Z" fill="#fff"/>
</svg>

<svg xmlns="http://www.w3.org/2000/svg" width="24" height="24" viewBox="0 0 17 17"><path fill="#fff" d="M8.9748 1.3393c-3.863 0-6.9954 3.1323-6.9954 6.9954 0 3.8632 3.1323 6.9955 6.9954 6.9955s6.9955-3.1323 6.9955-6.9955c0-3.863-3.1324-6.9954-6.9955-6.9954Zm0 12.8042c-3.2073 0-5.8087-2.6015-5.8087-5.8088 0-3.2072 2.6014-5.8087 5.8087-5.8087s5.8087 2.6015 5.8087 5.8087c0 3.2073-2.6014 5.8088-5.8087 5.8088Z"/><path fill="#fff" d="M10.7174 5.2852c-.4684-.4107-1.0868-.6355-1.7426-.6355-.6558 0-1.2742.2264-1.7426.6355-.4872.4263-.7558.9993-.7558 1.613v.1187c0 .0687.0563.1249.125.1249h.7495a.1253.1253 0 0 0 .1249-.125v-.1186c0-.6886.673-1.2492 1.499-1.2492.826 0 1.499.5606 1.499 1.2492 0 .4856-.3435.9306-.876 1.1352a1.7454 1.7454 0 0 0-.8135.6386c-.2045.2967-.3107.6527-.3107 1.0134v.3358c0 .0687.0562.1249.1249.1249h.7495a.1253.1253 0 0 0 .125-.1249v-.3545a.7542.7542 0 0 1 .4824-.6995c.9213-.3545 1.5162-1.1665 1.5162-2.069.0016-.6137-.267-1.1867-.7542-1.613ZM8.3502 11.77a.6247.6247 0 0 0 1.0663.4417.6247.6247 0 0 0-.4417-1.0663.6244.6244 0 0 0-.6246.6246Z"/></svg>
